X: 30679
T: Or Are We Dancers?
R: reel
M: 4/4
K: Amajor
|:cA A/B/A cdef|e2 ab afed|cA A/B/A cdef|
edcA d2 ed|cA A/B/A cdef|eaab babc'|
aefa e/f/e de|1 ceBe A e2 d:|2 ceBe A e2 f||
|:=g3 e f3 d|e3 f edcd|cA A/B/A cdef|
edcA d2 ef|=g3 e f3 d|eaab babc'|
aefa e/f/e de|1 ceBe A e2 f:|2 ceBe A e2 d||

